X:450
T:Welcome Home Grainne
R:jig
H:see also march#25 and reel#953
Z:hn-jig-450
M:6/8
L:1/8
K:Amix
eAA cBA | eAA f^ga | eAA c2e | dBG Bcd |
eAA cBA | ed=c B2A | GBd gfe | dBG Bcd :|
|: cBA ~a3 | ecA Bcd | cBA gfg | dBG Bcd |
cBA agf | gfe f2e | dfa gfe | dBG Bcd :|
P:variations
|: e2d cBA | ecA Bcd | ecA cde | dBG Bcd |
e2d cBA | ed=c B2A | GB/c/d gfe | dBG Bcd :|
|: eaa a^ga | ecA Bcd | egg gfe | dBG Bcd |
eaa agf | gfe f2e | def gfe | dBG Bcd :|

